src/assets/bold/lm-file-edit-bold.svg

<svg width="24" height="24" viewBox="0 0 24 24" fill="none" xmlns="http://www.w3.org/2000/svg" fill="currentColor">
<path d="M14.759 13.2898C14.759 13.5005 14.7089 13.6912 14.6386 13.8317C14.5583 13.9621 14.448 14.0625 14.3175 14.0625H7.10251C6.97206 14.0625 6.86167 13.9621 6.7814 13.8317C6.71115 13.6912 6.66098 13.5005 6.66098 13.2898C6.66098 13.0791 6.71115 12.8884 6.7814 12.7479C6.86167 12.6075 6.97206 12.5071 7.10251 12.5071H14.3175C14.448 12.5071 14.5583 12.6075 14.6386 12.7479C14.7089 12.8884 14.759 13.0791 14.759 13.2898Z" fill="black"/>
<path d="M10.8053 9.74752C10.8053 9.95825 10.7652 10.1489 10.6849 10.2894C10.6046 10.4299 10.4943 10.5302 10.3638 10.5302H7.10251C6.97206 10.5302 6.86167 10.4299 6.7814 10.2894C6.71115 10.1489 6.66098 9.95825 6.66098 9.74752C6.66098 9.53679 6.71115 9.34613 6.7814 9.20565C6.86167 9.07519 6.97206 8.97485 7.10251 8.97485H10.3638C10.4943 8.97485 10.6046 9.07519 10.6849 9.20565C10.7652 9.34613 10.8053 9.54683 10.8053 9.74752Z" fill="black"/>
<path d="M18.6023 4.59969L16.4248 2.41211C16.0234 2.02075 15.4916 1.79999 14.9396 1.79999H6.45022C4.82459 1.79999 3.5 3.12458 3.5 4.75021V19.0498C3.5 20.6754 4.82459 22 6.45022 22H10.715C11.0461 22 11.3271 21.7692 11.3873 21.4481L11.4074 21.3076C11.4074 20.9263 11.0963 20.6152 10.715 20.6152H6.45022C5.58723 20.6152 4.8848 19.9128 4.8848 19.0498V4.75021C4.8848 3.88722 5.58723 3.18479 6.45022 3.18479H13.3541V5.28205C13.3541 6.59661 14.4279 7.67033 15.7424 7.67033H17.8297V12.5272C17.8297 12.9085 18.1407 13.2196 18.5221 13.2196C18.9034 13.2196 19.2245 12.9085 19.2245 12.5272V6.08484C19.2245 5.53292 18.9937 4.99105 18.6023 4.59969ZM17.8297 6.2755H15.7424C15.1905 6.2755 14.749 5.83397 14.749 5.28205V3.18479H14.9396L15.0801 3.20486C15.2106 3.22493 15.341 3.29517 15.4414 3.39552L17.6189 5.57306C17.7594 5.71355 17.8297 5.90421 17.8297 6.08484V6.2755Z" fill="black"/>
<path d="M20.1477 14.6545H20.1376L20.0172 14.5241L19.8767 14.3936C19.1542 13.8016 18.0805 13.8417 17.3981 14.5241L13.1735 18.7487C13.1735 18.7487 13.0832 18.8491 13.0531 18.8993C13.023 18.9294 13.0029 18.9595 12.9828 18.9996C12.9828 19.0096 12.9728 19.0297 12.9628 19.0397C12.9527 19.0698 12.9427 19.0999 12.9327 19.12C12.9226 19.1401 12.9226 19.1602 12.9126 19.1702L12.8825 19.3107L12.6417 20.6854C12.6417 20.6854 12.6316 20.7758 12.6316 20.8159V20.9263C12.6316 20.9263 12.6417 20.9363 12.6417 20.9463C12.6417 20.9463 12.6417 21.0166 12.6417 21.0467C12.6417 21.0567 12.6417 21.0768 12.6517 21.0868C12.6517 21.1069 12.6517 21.127 12.6617 21.147C12.6718 21.1671 12.6718 21.1872 12.6818 21.2073C12.6918 21.2273 12.7019 21.2474 12.7019 21.2675C12.7019 21.2675 12.7019 21.2976 12.7219 21.3076C12.732 21.3277 12.742 21.3477 12.7621 21.3678C12.7621 21.3778 12.7621 21.3979 12.7821 21.4079C12.7922 21.428 12.8022 21.4481 12.8122 21.4682C12.8223 21.4782 12.8423 21.4983 12.8524 21.5083C12.8725 21.5384 12.9026 21.5685 12.9226 21.5986H12.9327C12.9828 21.6588 13.043 21.699 13.1133 21.7391C13.1233 21.7491 13.1334 21.7592 13.1534 21.7692C13.2337 21.8093 13.314 21.8495 13.4043 21.8695H13.4244C13.4846 21.8896 13.5548 21.8997 13.6251 21.8997H13.6652C13.7254 21.8997 13.7756 21.8997 13.8358 21.8896L15.2106 21.6588C15.4213 21.6086 15.6119 21.5183 15.7625 21.3678L19.9971 17.1331L20.1176 16.9926H20.1276C20.6695 16.3103 20.6695 15.3369 20.1276 14.6545H20.1477ZM18.8431 15.1663C18.8431 15.1663 18.9335 15.2065 18.9736 15.2265C19.0037 15.2366 19.0338 15.2466 19.0539 15.2667C19.094 15.2867 19.1342 15.3168 19.1643 15.3469C19.1643 15.3469 19.2345 15.4373 19.2646 15.4774C19.2746 15.5075 19.2847 15.5276 19.2947 15.5476C19.3047 15.5677 19.3148 15.5777 19.3148 15.5978C19.3248 15.6179 19.3348 15.638 19.3348 15.6681C19.3449 15.6881 19.3449 15.6982 19.3449 15.7182C19.3449 15.7383 19.3449 15.7684 19.3449 15.7985V15.9189C19.3449 15.9189 19.3449 15.949 19.3449 15.9591L19.3148 16.0594C19.3148 16.0594 19.3148 16.0795 19.3047 16.0795C19.2947 16.1096 19.2847 16.1297 19.2746 16.1497C19.2445 16.1999 19.2044 16.2501 19.1643 16.2902L18.7227 16.7317L17.7895 15.7985L18.231 15.357C18.3615 15.2265 18.5321 15.1663 18.6926 15.1663H18.8431ZM15.0099 20.5249L13.8057 20.7256L13.9963 19.5515L16.9566 16.5913L17.95 17.5747L15.0099 20.5249Z" fill="black"/>
</svg>

<svg xmlns="http://www.w3.org/2000/svg" width="24" height="24" fill="currentColor" viewBox="0 0 24 24">
  <path d="M14.759 13.29c0 .21-.05.401-.12.542-.08.13-.191.23-.321.23H7.103c-.13 0-.241-.1-.322-.23a1.24 1.24 0 0 1-.12-.542c0-.21.05-.402.12-.542.08-.14.191-.24.322-.24h7.215c.13 0 .24.1.32.24.07.14.121.331.121.542Zm-3.954-3.542c0 .21-.04.4-.12.541-.08.14-.19.241-.321.241H7.103c-.13 0-.241-.1-.322-.24a1.243 1.243 0 0 1-.12-.542c0-.211.05-.402.12-.542.08-.13.191-.231.322-.231h3.26c.131 0 .242.1.322.23.08.141.12.342.12.543Z"/>
  <path d="m18.602 4.6-2.177-2.188A2.13 2.13 0 0 0 14.94 1.8H6.45A2.955 2.955 0 0 0 3.5 4.75v14.3A2.955 2.955 0 0 0 6.45 22h4.265a.68.68 0 0 0 .672-.552l.02-.14a.694.694 0 0 0-.692-.693H6.45a1.567 1.567 0 0 1-1.565-1.565V4.75c0-.863.702-1.565 1.565-1.565h6.904v2.097a2.394 2.394 0 0 0 2.388 2.388h2.088v4.857c0 .382.31.693.692.693a.702.702 0 0 0 .703-.693V6.085a2.12 2.12 0 0 0-.623-1.485Zm-.772 1.676h-2.088a.99.99 0 0 1-.993-.994V3.185h.19l.141.02c.13.02.261.09.361.19l2.178 2.178c.14.14.21.331.21.512v.19Z"/>
  <path d="M20.148 14.655h-.01l-.12-.13-.141-.131a1.85 1.85 0 0 0-2.479.13l-4.224 4.225s-.09.1-.12.15a.342.342 0 0 0-.071.1c0 .01-.01.03-.02.04-.01.03-.02.06-.03.081-.01.02-.01.04-.02.05l-.03.14-.241 1.375s-.01.09-.01.13v.111s.01.01.01.02v.1c0 .01 0 .03.01.04 0 .02 0 .041.01.061.01.02.01.04.02.06.01.02.02.04.02.06 0 0 0 .03.02.04.01.02.02.04.04.06 0 .01 0 .03.02.04l.03.061.04.04c.02.03.05.06.07.09h.01a.63.63 0 0 0 .181.141c.01.01.02.02.04.03.08.04.161.08.251.1h.02c.06.02.13.03.201.03h.04c.06 0 .11 0 .17-.01l1.376-.23c.21-.05.4-.14.551-.291l4.235-4.235.12-.14h.01a1.885 1.885 0 0 0 0-2.338h.02Zm-1.305.511s.09.04.13.06c.03.01.06.02.08.04.041.02.081.05.111.08l.1.131c.01.03.02.05.03.07.01.02.02.03.02.05.01.02.02.041.02.071.01.02.01.03.01.05v.242l-.03.1s0 .02-.01.02a.474.474 0 0 1-.14.211l-.441.442-.933-.933.441-.442c.13-.13.301-.19.462-.19h.15Zm-3.833 5.359-1.204.2.19-1.174 2.96-2.96.994.984-2.94 2.95Z"/>
</svg>
